X: 1
T: Darby The Driver
M: 6/8
L: 1/8
R: jig
K: Amin
|:EAA ABc|BBB BAB|d^cd dBg|dBG AGF|
EAA ABc|BBB BAB|d^cd gdB|1BAG AGF:|2BAG A2e||
|:aaa age|aaa age|gag e/^f/ge|dBG G2e|
|1aaa age|def fg2|e/^f/ge dBg|BAG A2e:|
|2aea geg|^fdf ede|e/^f/ge dBg|BAG AGF||
